X:10636
T:McMahon's Jig
S:Treoir, 1993 (from Eddie Ruddy)
M:6/8
I:speed 250
K:G
|:d | DGF G2A | BAG ABc | dgf ded | ded cAF |
DGF G2 A | GAB ABc | dgf ded cAF G2 :|
|:F | AFA d2d | faf ge^c | def ecA | GFG AFD |
AFA d2d | faf ge^c | afa ge^c | ded d2:|
|: c BAB GBd | gfg ece | dBd cAc BGB AFD |
d^cd GBd | gba gfg | fed fed cAF G2:|
